X: 10
T:Willy With Wisp. JaW.010
M:C|
Q:1/4=240
S:James Winder Ms, Lancashire, 1835-41
R:Country Dance
O:England
A:Wyresdale,Lancashire
H:1/8
Z:vmp.Chris Partington, Aug 2004
K:G
c2|B2G2G2B2|A2D2D2c2|B2G2B2d2|g4 (agfe)|!
B2G2G2B2|A2D2D2g2|f2e2d2c2|"Minim"d4-d4:|!
|:d2B2B2(cd)|e2c2c4|c2A2A2(Bc)|d2B2B4|!
B2G2G2(AB)|c2A2A2c2|B2G2A2F2|G4-G4:|]
